X: 756
T: Da yandai
%%abc-version 2.0
%%abcx-abcm2ps-target-version 5.9.1 (29 Sep 2008)
%%abc-creator hum2abc beta
%%abcx-conversion-date 2013/10/02 07:52:30
%%abc-edited-by Helmut Schaffrath
%%humdrum-veritas 3630622511
%%humdrum-veritas-data 3759064165
%%continueall 1
%%barnumbers 0
L: 1/16
M: 2/4
K: C
e2 e d c2 d c [I:setbarnb 1]| 
A2 c2G4 | 
e2 e d c2 A c | 
D8 | 
e2 e d c2 d c | 
A2 c2G4 | 
A A A G E2 G E | 
D8 | 
d2> c2G4 | 
A2> c2G4 | 
E2 D E G2 A2 | 
z2 e2 d2 z2 |]  



